X: 259
T: 260. Es ist gewi\sslich an der Zeit
N: Derived from chor260.krn
C: Johann Sebastian Bach
%%abc-version 2.0
%%abcx-abcm2ps-target-version 5.9.1 (29 Sep 2008)
%%abc-creator hum2abc beta
%%abcx-conversion-date 2019/03/11 17:28:19
%%abc-edited-by Craig Stuart Sapp
%%humdrum-veritas 1260965657
%%humdrum-veritas-data 1634011951
%%
%%barnumbers 0
L: 1/4
M: C
%%staves [1 2 3 4]
V: 1 clef=treble
V: 2 clef=treble
V: 3 clef=treble-8
V: 4 clef=bass
K: Bb
[V:1] B [I:setbarnb 1]| 
[V:2] F/E/ | 
[V:3] d/c/ | 
[V:4] B,,/C,/ | 
[V:1] B/c/dcB | 
[V:2] FBAG | 
[V:3] Bff/e/d | 
[V:4] D,C,/B,,/F,G,/F,/ | 
[V:1] cc!fermata!dB/c/ | 
[V:2] GF!fermata!FF | 
[V:3] c/B/ B/A/!fermata!Bd/e/ | 
[V:4] E,F,!fermata!B,,B,, | 
[V:1] def/e/d | 
[V:2] BBcB | 
[V:3] fgff | 
[V:4] B,A,/G,/A,B, | 
[V:1] c2!fermata!B :|]  
[V:2] BA!fermata!F :|]  
[V:3] gf/e/!fermata!d :|]  
[V:4] E,F,!fermata!B,, :|]  
[V:1] d [I:setbarnb 5]| 
[V:2] F | 
[V:3] B | 
[V:4] B,,/C,/ | 
[V:1] dcBA | 
[V:2] FF/E/ D/G/ G/^F/ | 
[V:3] BABc | 
[V:4] D,/E,/F,G,A, | 
[V:1] B/c/d!fermata!cc | 
[V:2] G/A/B!fermata!AA | 
[V:3] d/e/=f!fermata!fd | 
[V:4] G,D,/E,/!fermata!=F,^F, | 
[V:1] BABF | 
[V:2] A/G/ G/^F/GD | 
[V:3] dddd/c/ | 
[V:4] G,D,G,/A,/ B,/A,/ | 
[V:1] Bc!fermata!dB/c/ | 
[V:2] DG!fermata!^FD | 
[V:3] B/A/G!fermata!AG/A/ | 
[V:4] G,/F,/E,!fermata!D,G,, | 
[V:1] def/e/d | 
[V:2] GGFF | 
[V:3] BBBB | 
[V:4] G,=F,/E,/ D,/C,/B,, | 
[V:1] c2!fermata!B |]  
[V:2] GF/E/!fermata!D |]  
[V:3] BA!fermata!F |]  
[V:4] E,F,!fermata!B,, |]  



